arcticons-dark/symbolic/apps/steam_icon_1672970-symbolic.svg

<?xml version="1.0" encoding="UTF-8" standalone="no"?>
<svg
   id="b"
   viewBox="0 0 48 48"
   version="1.1"
   sodipodi:docname="steam_icon_1672970.svg"
   xmlns:inkscape="http://www.inkscape.org/namespaces/inkscape"
   xmlns:sodipodi="http://sodipodi.sourceforge.net/DTD/sodipodi-0.dtd"
   xmlns="http://www.w3.org/2000/svg"
   xmlns:svg="http://www.w3.org/2000/svg">
  <sodipodi:namedview
     id="namedview5"
     pagecolor="#ffffff"
     bordercolor="#666666"
     borderopacity="1.0"
     inkscape:showpageshadow="2"
     inkscape:pageopacity="0.0"
     inkscape:pagecheckerboard="0"
     inkscape:deskcolor="#d1d1d1" />
  <defs
     id="defs1">
    <style
       id="style1">.c{fill:none;stroke:#fff;stroke-width:2px;stroke-linecap:round;stroke-linejoin:round;}</style>
  </defs>
  <path
     style="color:#000000;fill:#ffffff;stroke-linecap:round;stroke-linejoin:round;-inkscape-stroke:none"
     d="m 5.2558594,12.666016 a 1.0001,1.0001 0 0 0 -0.5,0.867187 v 20.933594 a 1.0001,1.0001 0 0 0 0.5,0.867187 L 23.5,45.865234 A 1.0001,1.0001 0 0 0 25,45 V 24.066406 A 1.0001,1.0001 0 0 0 24.5,23.199219 L 6.2558594,12.666016 a 1.0001,1.0001 0 0 0 -1,0 z m 1.5,2.597656 L 23,24.642578 V 43.269531 L 6.7558594,33.890625 Z"
     id="polygon1" />
  <path
     style="color:#000000;fill:#ffffff;stroke-linecap:round;stroke-linejoin:round;-inkscape-stroke:none"
     d="m 5.2558594,12.666016 a 1.0001,1.0001 0 0 0 -0.5,0.867187 v 7.849609 a 1.0001,1.0001 0 0 0 0.5,0.867188 l 1.78125,1.027344 v 2.039062 a 1.0001,1.0001 0 0 0 0.5,0.867188 L 9.8183594,27.5 a 1.0001,1.0001 0 0 0 1.4999996,-0.867188 v -3.5 l 0.779297,0.449219 a 1.0001,1.0001 0 0 0 1.5,-0.865234 v -0.884766 l 0.28125,0.16211 v 4.65625 a 1.0001,1.0001 0 0 0 0.5,0.865234 l 2.279297,1.316406 a 1.0001,1.0001 0 0 0 1.5,-0.865234 v -0.884766 l 0.28125,0.16211 v 2.039062 a 1.0001,1.0001 0 0 0 0.5,0.865234 l 2.279297,1.316407 a 1.0001,1.0001 0 0 0 1.5,-0.865235 V 29.714844 L 23.5,30.166016 A 1.0001,1.0001 0 0 0 25,29.298828 V 24.066406 A 1.0001,1.0001 0 0 0 24.5,23.199219 L 22.21875,21.882812 19.939453,20.566406 17.658203,19.25 15.378906,17.933594 13.097656,16.617187 10.818359,15.300781 8.5371094,13.984375 6.2558594,12.666016 a 1.0001,1.0001 0 0 0 -1,0 z m 1.5,2.597656 0.78125,0.451172 2.28125,1.316406 2.2792966,1.318359 2.28125,1.316407 2.279297,1.316406 2.28125,1.316406 2.279297,1.316406 L 23,24.642578 v 2.925781 l -0.78125,-0.451172 a 1.0001,1.0001 0 0 0 -1.5,0.865235 v 0.884765 l -0.279297,-0.162109 v -2.039062 a 1.0001,1.0001 0 0 0 -0.5,-0.865235 l -2.28125,-1.316406 a 1.0001,1.0001 0 0 0 -1.5,0.865234 v 0.884766 l -0.279297,-0.162109 v -4.65625 a 1.0001,1.0001 0 0 0 -0.5,-0.865235 l -2.28125,-1.316406 a 1.0001,1.0001 0 0 0 -1.5,0.865234 v 0.882813 l -0.779297,-0.449219 a 1.0001,1.0001 0 0 0 -1.4999996,0.867188 v 3.5 l -0.28125,-0.16211 v -2.039062 a 1.0001,1.0001 0 0 0 -0.5,-0.865235 l -1.78125,-1.027343 z"
     id="polygon2" />
  <path
     style="color:#000000;fill:#ffffff;stroke-linecap:round;stroke-linejoin:round;-inkscape-stroke:none"
     d="M 23.5,2.1347656 5.2558594,12.666016 a 1.0001,1.0001 0 0 0 0,1.732422 L 23.5,24.931641 a 1.0001,1.0001 0 0 0 1,0 L 42.744141,14.398438 a 1.0001,1.0001 0 0 0 0,-1.732422 L 24.5,2.1347656 a 1.0001,1.0001 0 0 0 -1,0 z M 24,4.1542969 40.244141,13.533203 24,22.910156 7.7558594,13.533203 Z"
     id="polygon3" />
  <path
     style="color:#000000;fill:#ffffff;stroke-linecap:round;stroke-linejoin:round;-inkscape-stroke:none"
     d="M 41.744141,12.666016 23.5,23.199219 A 1.0001,1.0001 0 0 0 23,24.066406 V 45 a 1.0001,1.0001 0 0 0 1.5,0.865234 l 18.244141,-10.53125 a 1.0001,1.0001 0 0 0 0.5,-0.867187 V 13.533203 a 1.0001,1.0001 0 0 0 -1.5,-0.867187 z m -0.5,2.597656 V 33.890625 L 25,43.269531 V 24.642578 Z"
     id="polygon4" />
  <path
     style="color:#000000;fill:#ffffff;stroke-linecap:round;stroke-linejoin:round;-inkscape-stroke:none"
     d="m 41.744141,12.666016 -2.28125,1.318359 -2.28125,1.316406 -2.279297,1.316406 -2.28125,1.316407 L 30.341797,19.25 28.060547,20.566406 25.78125,21.882812 23.5,23.199219 A 1.0001,1.0001 0 0 0 23,24.066406 v 7.84961 a 1.0001,1.0001 0 0 0 1.5,0.865234 l 0.78125,-0.451172 v 0.886719 a 1.0001,1.0001 0 0 0 1.5,0.865234 l 2.279297,-1.316406 a 1.0001,1.0001 0 0 0 0.5,-0.865234 v -4.65625 l 1.78125,-1.029297 a 1.0001,1.0001 0 0 0 0.5,-0.865235 v -2.039062 l 0.279297,-0.16211 v 3.501954 a 1.0001,1.0001 0 0 0 1.5,0.865234 l 2.28125,-1.316406 a 1.0001,1.0001 0 0 0 0.5,-0.867188 v -2.039062 l 0.279297,-0.16211 v 0.884766 a 1.0001,1.0001 0 0 0 1.5,0.867187 l 2.28125,-1.316406 a 1.0001,1.0001 0 0 0 0.5,-0.867187 v -2.039063 l 1.78125,-1.027344 a 1.0001,1.0001 0 0 0 0.5,-0.867187 v -5.232422 a 1.0001,1.0001 0 0 0 -1.5,-0.867187 z m -0.5,2.597656 v 2.925781 l -1.78125,1.027344 a 1.0001,1.0001 0 0 0 -0.5,0.865234 v 2.041016 l -0.28125,0.162109 v -0.884765 a 1.0001,1.0001 0 0 0 -1.5,-0.867188 l -2.279297,1.316406 a 1.0001,1.0001 0 0 0 -0.5,0.867188 v 2.039062 l -0.28125,0.16211 v -3.501953 a 1.0001,1.0001 0 0 0 -1.5,-0.865235 l -2.279297,1.316406 a 1.0001,1.0001 0 0 0 -0.5,0.865235 v 2.039062 l -1.78125,1.029297 a 1.0001,1.0001 0 0 0 -0.5,0.865235 v 4.65625 l -0.279297,0.162109 v -0.884766 a 1.0001,1.0001 0 0 0 -1.5,-0.865234 L 25,30.185547 v -5.542969 l 1.78125,-1.027344 2.279297,-1.316406 2.28125,-1.316406 2.279297,-1.316406 2.28125,-1.316407 2.279297,-1.318359 2.28125,-1.316406 z"
     id="polygon5" />
</svg>

<?xml version="1.0" encoding="UTF-8"?>
<svg id="b" version="1.1" viewBox="0 0 48 48" xmlns="http://www.w3.org/2000/svg">
 <defs id="defs4">
  <style id="style2">.c{fill:none;stroke:#fff;stroke-width:2px;stroke-linecap:round;stroke-linejoin:round;}</style>
 </defs>
 <path id="polygon6" d="m5.2559 12.666a1.0001 1.0001 0 0 0-0.5 0.86719v20.934a1.0001 1.0001 0 0 0 0.5 0.86719l18.244 10.531a1.0001 1.0001 0 0 0 1.5-0.86523v-20.934a1.0001 1.0001 0 0 0-0.5-0.86719l-18.244-10.533a1.0001 1.0001 0 0 0-1 0zm1.5 2.5977 16.244 9.3789v18.627l-16.244-9.3789z" color="#000000" fill="#fff" stroke-linecap="round" stroke-linejoin="round" style="-inkscape-stroke:none"/>
 <path id="polygon8" d="m5.2559 12.666a1.0001 1.0001 0 0 0-0.5 0.86719v7.8496a1.0001 1.0001 0 0 0 0.5 0.86719l1.7812 1.0273v2.0391a1.0001 1.0001 0 0 0 0.5 0.86719l2.2812 1.3164a1.0001 1.0001 0 0 0 1.5-0.86719v-3.5l0.7793 0.44922a1.0001 1.0001 0 0 0 1.5-0.86523v-0.88477l0.28125 0.16211v4.6562a1.0001 1.0001 0 0 0 0.5 0.86523l2.2793 1.3164a1.0001 1.0001 0 0 0 1.5-0.86523v-0.88477l0.28125 0.16211v2.0391a1.0001 1.0001 0 0 0 0.5 0.86523l2.2793 1.3164a1.0001 1.0001 0 0 0 1.5-0.86524v-0.88476l0.78125 0.45117a1.0001 1.0001 0 0 0 1.5-0.86719v-5.2324a1.0001 1.0001 0 0 0-0.5-0.86719l-2.2812-1.3164-2.2793-1.3164-2.2812-1.3164-2.2793-1.3164-2.2812-1.3164-2.2793-1.3164-2.2812-1.3164-2.2812-1.3184a1.0001 1.0001 0 0 0-1 0zm1.5 2.5977 0.78125 0.45117 2.2812 1.3164 2.2793 1.3184 2.2812 1.3164 2.2793 1.3164 2.2812 1.3164 2.2793 1.3164 1.7812 1.0273v2.9258l-0.78125-0.45117a1.0001 1.0001 0 0 0-1.5 0.86524v0.88476l-0.2793-0.16211v-2.0391a1.0001 1.0001 0 0 0-0.5-0.86524l-2.2812-1.3164a1.0001 1.0001 0 0 0-1.5 0.86523v0.88477l-0.2793-0.16211v-4.6562a1.0001 1.0001 0 0 0-0.5-0.86524l-2.2812-1.3164a1.0001 1.0001 0 0 0-1.5 0.86523v0.88281l-0.7793-0.44922a1.0001 1.0001 0 0 0-1.5 0.86719v3.5l-0.28125-0.16211v-2.0391a1.0001 1.0001 0 0 0-0.5-0.86524l-1.7812-1.0273z" color="#000000" fill="#fff" stroke-linecap="round" stroke-linejoin="round" style="-inkscape-stroke:none"/>
 <path id="polygon10" d="m23.5 2.1348-18.244 10.531a1.0001 1.0001 0 0 0 0 1.7324l18.244 10.533a1.0001 1.0001 0 0 0 1 0l18.244-10.533a1.0001 1.0001 0 0 0 0-1.7324l-18.244-10.531a1.0001 1.0001 0 0 0-1 0zm0.5 2.0195 16.244 9.3789-16.244 9.377-16.244-9.377z" color="#000000" fill="#fff" stroke-linecap="round" stroke-linejoin="round" style="-inkscape-stroke:none"/>
 <path id="polygon12" d="m41.744 12.666-18.244 10.533a1.0001 1.0001 0 0 0-0.5 0.86719v20.934a1.0001 1.0001 0 0 0 1.5 0.86523l18.244-10.531a1.0001 1.0001 0 0 0 0.5-0.86719v-20.934a1.0001 1.0001 0 0 0-1.5-0.86719zm-0.5 2.5977v18.627l-16.244 9.3789v-18.627z" color="#000000" fill="#fff" stroke-linecap="round" stroke-linejoin="round" style="-inkscape-stroke:none"/>
 <path id="polygon14" d="m41.744 12.666-2.2812 1.3184-2.2812 1.3164-2.2793 1.3164-2.2812 1.3164-2.2793 1.3164-2.2812 1.3164-2.2793 1.3164-2.2812 1.3164a1.0001 1.0001 0 0 0-0.5 0.86719v7.8496a1.0001 1.0001 0 0 0 1.5 0.86523l0.78125-0.45117v0.88672a1.0001 1.0001 0 0 0 1.5 0.86523l2.2793-1.3164a1.0001 1.0001 0 0 0 0.5-0.86523v-4.6562l1.7812-1.0293a1.0001 1.0001 0 0 0 0.5-0.86524v-2.0391l0.2793-0.16211v3.502a1.0001 1.0001 0 0 0 1.5 0.86523l2.2812-1.3164a1.0001 1.0001 0 0 0 0.5-0.86719v-2.0391l0.2793-0.16211v0.88477a1.0001 1.0001 0 0 0 1.5 0.86719l2.2812-1.3164a1.0001 1.0001 0 0 0 0.5-0.86719v-2.0391l1.7812-1.0273a1.0001 1.0001 0 0 0 0.5-0.86719v-5.2324a1.0001 1.0001 0 0 0-1.5-0.86719zm-0.5 2.5977v2.9258l-1.7812 1.0273a1.0001 1.0001 0 0 0-0.5 0.86523v2.041l-0.28125 0.16211v-0.88476a1.0001 1.0001 0 0 0-1.5-0.86719l-2.2793 1.3164a1.0001 1.0001 0 0 0-0.5 0.86719v2.0391l-0.28125 0.16211v-3.502a1.0001 1.0001 0 0 0-1.5-0.86524l-2.2793 1.3164a1.0001 1.0001 0 0 0-0.5 0.86524v2.0391l-1.7812 1.0293a1.0001 1.0001 0 0 0-0.5 0.86524v4.6562l-0.2793 0.16211v-0.88477a1.0001 1.0001 0 0 0-1.5-0.86523l-0.78125 0.45117v-5.543l1.7812-1.0273 2.2793-1.3164 2.2812-1.3164 2.2793-1.3164 2.2812-1.3164 2.2793-1.3184 2.2812-1.3164z" color="#000000" fill="#fff" stroke-linecap="round" stroke-linejoin="round" style="-inkscape-stroke:none"/>
</svg>
